X:1
T:Pachebel Canon
T:Pachebel Canon
T:4 Trombones
T:John Pachelbel Arr. by Hisashi Arayama
%%score 1 2 3 4
L:1/8
Q:1/4=30
M:4/4
K:D
V:1 bass nm="Trombone 1"
V:2 bass nm="Trombone 2" snm="Tbn."
V:3 bass nm="Trombone 3" snm="Tbn."
V:4 bass nm="Trombone 4" snm="Tbn."
V:1
 z8 | z8 | F2 E2 D2 C2 | B,2 A,2 B,2 C2 | D2 C2 B,2 A,2 | G,2 F,2 G,2 E,2 | D,F,A,G, F,D,F,E, | %7
 D,B,,D,A, G,B,A,G, | F,D,E,C DFAA, | B,G,A,F, D,D D>C | %10
 D/C/D/D,/ C,/A,/E,/F,/ D,/D/C/B,/ C/F/A/B/ | G/F/E/G/ F/E/D/C/ B,/A,/G,/F,/ E,/G,/F,/E,/ | %12
 D,/E,/F,/G,/ A,/E,/A,/G,/ F,/B,/A,/G,/ A,/G,/F,/E,/ | %13
 D,/B,,/B,/C/ D/C/B,/A,/ G,/F,/E,/B,/ A,/B,/A,/G,/ | F,F E2 z D F2 | B2 A2 B2 c2 | dD C2 z B, D2 | %17
 D3 D DGEA | %18
 A/F/4G/4A/F/4G/4 A/4A,/4B,/4C/4D/4E/4F/4G/4 F/D/4E/4F/F,/4G,/4 A,/4B,/4A,/4G,/4A,/4F,/4G,/4A,/4 | %19
 G,/B,/4A,/4G,/F,/4E,/4 F,/4E,/4D,/4E,/4F,/4G,/4A,/4B,/4 G,/B,/4A,/4B,/C/4D/4 A,/4B,/4C/4D/4E/4F/4G/4A/4 | %20
 F/D/4E/4F/E/4D/4 E/4C/4D/4E/4F/4E/4D/4C/4 D/B,/4C/4D/D,/4E,/4 F,/4G,/4F,/4E,/4F,/4D/4C/4D/4 | %21
 B,/D/4C/4B,/A,/4G,/4 A,/4G,/4F,/4G,/4A,/4B,/4C/4D/4 B,/D/4C/4D/C/4B,/4 C/4D/4E/4D/4C/4D/4B,/4C/4 | %22
 D z C z B, z D z | D, z D, z D, z E, z | z A, z A, z F, z A, | z G, z F, z G, z E | %26
 F/F,/G,/F,/ E,/E/F/E/ D/F,/D,/B,/ A,/A,,/G,,/A,,/ | %27
 B,,/B,/C/B,/ A,/A,,/G,,/A,,/ B,,/B,/A,/B,/ C/C,/B,,/C,/ | %28
 D,/D/E/D/ C/C,/D,/C,/ B,,/B,/A,/B,/ C/C,/F,/E,/ | D,/D/E/G/ F/F,/A,/F/ D/G/F/G/ E/A,/G,/A,/ | %30
 F,/A,/A,/A,/ A,/A,/A,/A,/ F,/F,/F,/F,/ F,/F,/A,/A,/ | G,/G,/G,/D/ D/D/D/D/ D/D/B,/B,/ A,/A,/E/C/ | %32
 A,/F/F/F/ E/E/E/E/ D/D/D/D/ A/A/A/A/ | B/B/B/B/ A/A/A/A/ B/B/B/B/ c/C/C/C/ | %34
 D/D,/4E,/4F,/D,/ C,/C/4D/4E/C/ B,/B,,/4C,/4D,/B,,/ C,/A,/4G,/4F,/E,/ | %35
 D,/G,/4F,/4E,/G,/ F,/D,/4E,/4F,/A,/ G,/B,/4A,/4G,/F,/ E,/A,/4G,/4F,/E,/ | %36
 F,/D/4C/4D/F,/ A,/A,/4B,/4C/A,/ F,/D/4E/4F/D/ F/F/4E/4D/C/ | %37
 B,/B,/4A,/4B,/C/ D/F/4E/4D/F/ G/D/4C/4B,/B,/ A,/E,/A,/A,/ | A,3 A, D,3 A, | G,2 A,2 G,D, D,>C, | %40
 D,D C2 B,2 A,2 | D,>E, F,2 B,2 E,>E, | F,>F F/G/F/E/ D>D D/E/D/C/ | B,2 D2 D/=C/B,/C/ A,>A, | %44
 A,>A A/B/A/G/ F>F F/G/F/E/ | D/=C/B,/C/ A,>A, G,D ^C>C | D D2 C2 B,2 A,- | A, G,2 F,- F,>E, E,2 | %48
 F, F2 E D d2 =c | B2 dA B2 A2 | A2 A,>G, F,2 F>E | D3 D D2 C2 | DD,C,C B,B,,A,,A, | %53
 G,GFF, E,B,E,E | FF,E,E DD,C,C | B,BAA, G,>E A,A, | A,8 |] %57
V:2
 z8 | z8 | z8 | z8 | F2 E2 D2 C2 | B,2 A,2 B,2 C2 | D2 C2 B,2 A,2 | G,2 F,2 G,2 E,2 | %8
 D,F,A,G, F,D,F,E, | D,B,,D,A, G,B,A,G, | F,D,E,C DFAA, | B,G,A,F, D,D D>C | %12
 D/C/D/D,/ C,/A,/E,/F,/ D,/D/C/B,/ C/F/A/B/ | G/F/E/G/ F/E/D/C/ B,/A,/G,/F,/ E,/G,/F,/E,/ | %14
 D,/E,/F,/G,/ A,/E,/A,/G,/ F,/B,/A,/G,/ A,/G,/F,/E,/ | %15
 D,/B,,/B,/C/ D/C/B,/A,/ G,/F,/E,/B,/ A,/B,/A,/G,/ | F,F E2 z D F2 | B2 A2 B2 c2 | dD C2 z B, D2 | %19
 D3 D DGEA | %20
 A/F/4G/4A/F/4G/4 A/4A,/4B,/4C/4D/4E/4F/4G/4 F/D/4E/4F/F,/4G,/4 A,/4B,/4A,/4G,/4A,/4F,/4G,/4A,/4 | %21
 G,/B,/4A,/4G,/F,/4E,/4 F,/4E,/4D,/4E,/4F,/4G,/4A,/4B,/4 G,/B,/4A,/4B,/C/4D/4 A,/4B,/4C/4D/4E/4F/4G/4A/4 | %22
 F/D/4E/4F/E/4D/4 E/4C/4D/4E/4F/4E/4D/4C/4 D/B,/4C/4D/D,/4E,/4 F,/4G,/4F,/4E,/4F,/4D/4C/4D/4 | %23
 B,/D/4C/4B,/A,/4G,/4 A,/4G,/4F,/4G,/4A,/4B,/4C/4D/4 B,/D/4C/4D/C/4B,/4 C/4D/4E/4D/4C/4D/4B,/4C/4 | %24
 D z C z B, z D z | D, z D, z D, z E, z | z A, z A, z F, z A, | z G, z F, z G, z E | %28
 F/F,/G,/F,/ E,/E/F/E/ D/F,/D,/B,/ A,/A,,/G,,/A,,/ | %29
 B,,/B,/C/B,/ A,/A,,/G,,/A,,/ B,,/B,/A,/B,/ C/C,/B,,/C,/ | %30
 D,/D/E/D/ C/C,/D,/C,/ B,,/B,/A,/B,/ C/C,/F,/E,/ | D,/D/E/G/ F/F,/A,/F/ D/G/F/G/ E/A,/G,/A,/ | %32
 F,/A,/A,/A,/ A,/A,/A,/A,/ F,/F,/F,/F,/ F,/F,/A,/A,/ | G,/G,/G,/D/ D/D/D/D/ D/D/B,/B,/ A,/A,/E/C/ | %34
 A,/F/F/F/ E/E/E/E/ D/D/D/D/ A/A/A/A/ | B/B/B/B/ A/A/A/A/ B/B/B/B/ c/C/C/C/ | %36
 D/D,/4E,/4F,/D,/ C,/C/4D/4E/C/ B,/B,,/4C,/4D,/B,,/ C,/A,/4G,/4F,/E,/ | %37
 D,/G,/4F,/4E,/G,/ F,/D,/4E,/4F,/A,/ G,/B,/4A,/4G,/F,/ E,/A,/4G,/4F,/E,/ | %38
 F,/D/4C/4D/F,/ A,/A,/4B,/4C/A,/ F,/D/4E/4F/D/ F/F/4E/4D/C/ | %39
 B,/B,/4A,/4B,/C/ D/F/4E/4D/F/ G/D/4C/4B,/B,/ A,/E,/A,/A,/ | A,3 A, D,3 A, | G,2 A,2 G,D, D,>C, | %42
 D,D C2 B,2 A,2 | D,>E, F,2 B,2 E,>E, | F,>F F/G/F/E/ D>D D/E/D/C/ | B,2 D2 D/=C/B,/C/ A,>A, | %46
 A,>A A/B/A/G/ F>F F/G/F/E/ | D/=C/B,/C/ A,>A, G,D ^C>C | D D2 C2 B,2 A,- | A, G,2 F,- F,>E, E,2 | %50
 F, F2 E D d2 =c | B2 dA B2 A2 | A2 A,>G, F,2 F>E | D3 D D2 C2 | DD,C,C B,B,,A,,A, | %55
 G,GFF, E,B,E,E | F8 |] %57
V:3
 z8 | z8 | z8 | z8 | z8 | z8 | F2 E2 D2 C2 | B,2 A,2 B,2 C2 | D2 C2 B,2 A,2 | G,2 F,2 G,2 E,2 | %10
 D,F,A,G, F,D,F,E, | D,B,,D,A, G,B,A,G, | F,D,E,C DFAA, | B,G,A,F, D,D D>C | %14
 D/C/D/D,/ C,/A,/E,/F,/ D,/D/C/B,/ C/F/A/B/ | G/F/E/G/ F/E/D/C/ B,/A,/G,/F,/ E,/G,/F,/E,/ | %16
 D,/E,/F,/G,/ A,/E,/A,/G,/ F,/B,/A,/G,/ A,/G,/F,/E,/ | %17
 D,/B,,/B,/C/ D/C/B,/A,/ G,/F,/E,/B,/ A,/B,/A,/G,/ | F,F E2 z D F2 | B2 A2 B2 c2 | dD C2 z B, D2 | %21
 D3 D DGEA | %22
 A/F/4G/4A/F/4G/4 A/4A,/4B,/4C/4D/4E/4F/4G/4 F/D/4E/4F/F,/4G,/4 A,/4B,/4A,/4G,/4A,/4F,/4G,/4A,/4 | %23
 G,/B,/4A,/4G,/F,/4E,/4 F,/4E,/4D,/4E,/4F,/4G,/4A,/4B,/4 G,/B,/4A,/4B,/C/4D/4 A,/4B,/4C/4D/4E/4F/4G/4A/4 | %24
 F/D/4E/4F/E/4D/4 E/4C/4D/4E/4F/4E/4D/4C/4 D/B,/4C/4D/D,/4E,/4 F,/4G,/4F,/4E,/4F,/4D/4C/4D/4 | %25
 B,/D/4C/4B,/A,/4G,/4 A,/4G,/4F,/4G,/4A,/4B,/4C/4D/4 B,/D/4C/4D/C/4B,/4 C/4D/4E/4D/4C/4D/4B,/4C/4 | %26
 D z C z B, z D z | D, z D, z D, z E, z | z A, z A, z F, z A, | z G, z F, z G, z E | %30
 F/F,/G,/F,/ E,/E/F/E/ D/F,/D,/B,/ A,/A,,/G,,/A,,/ | %31
 B,,/B,/C/B,/ A,/A,,/G,,/A,,/ B,,/B,/A,/B,/ C/C,/B,,/C,/ | %32
 D,/D/E/D/ C/C,/D,/C,/ B,,/B,/A,/B,/ C/C,/F,/E,/ | D,/D/E/G/ F/F,/A,/F/ D/G/F/G/ E/A,/G,/A,/ | %34
 F,/A,/A,/A,/ A,/A,/A,/A,/ F,/F,/F,/F,/ F,/F,/A,/A,/ | G,/G,/G,/D/ D/D/D/D/ D/D/B,/B,/ A,/A,/E/C/ | %36
 A,/F/F/F/ E/E/E/E/ D/D/D/D/ A/A/A/A/ | B/B/B/B/ A/A/A/A/ B/B/B/B/ c/C/C/C/ | %38
 D/D,/4E,/4F,/D,/ C,/C/4D/4E/C/ B,/B,,/4C,/4D,/B,,/ C,/A,/4G,/4F,/E,/ | %39
 D,/G,/4F,/4E,/G,/ F,/D,/4E,/4F,/A,/ G,/B,/4A,/4G,/F,/ E,/A,/4G,/4F,/E,/ | %40
 F,/D/4C/4D/F,/ A,/A,/4B,/4C/A,/ F,/D/4E/4F/D/ F/F/4E/4D/C/ | %41
 B,/B,/4A,/4B,/C/ D/F/4E/4D/F/ G/D/4C/4B,/B,/ A,/E,/A,/A,/ | %42
 F,/D/4C/4D/F,/ A,/A,/4B,/4C/A,/ F,/D/4E/4F/D/ F/F/4E/4D/C/ | G,2 A,2 G,D, D,>C, | D,D C2 B,2 A,2 | %45
 D,>E, F,2 B,2 E,>E, | F,>F F/G/F/E/ D>D D/E/D/C/ | B,2 D2 D/=C/B,/C/ A,>A, | %48
 A,>A A/B/A/G/ F>F F/G/F/E/ | D/=C/B,/C/ A,>A, G,D ^C>C | D D2 C2 B,2 A, | A, G,2 F,- F,>E, E,2 | %52
 F, F2 E D d2 =c | B2 dA B2 A2 | A2 A,>G, F,2 F>E | D3 D D2 C2 | D8 |] %57
V:4
 D,2 A,,2 B,,2 F,,2 | G,,2 D,,2 G,,2 A,,2 | D,2 A,,2 B,,2 F,,2 | G,,2 D,,2 G,,2 A,,2 | %4
 D,2 A,,2 B,,2 F,,2 | G,,2 D,,2 G,,2 A,,2 | D,2 A,,2 B,,2 F,,2 | G,,2 D,,2 G,,2 A,,2 | %8
 D,2 A,,2 B,,2 F,,2 | G,,2 D,,2 G,,2 A,,2 | D,2 A,,2 B,,2 F,,2 | G,,2 D,,2 G,,2 A,,2 | %12
 D,2 A,,2 B,,2 F,,2 | G,,2 D,,2 G,,2 A,,2 | D,2 A,,2 B,,2 F,,2 | G,,2 D,,2 G,,2 A,,2 | %16
 D,2 A,,2 B,,2 F,,2 | G,,2 D,,2 G,,2 A,,2 | D,2 A,,2 B,,2 F,,2 | G,,2 D,,2 G,,2 A,,2 | %20
 D,2 A,,2 B,,2 F,,2 | G,,2 D,,2 G,,2 A,,2 | D,2 A,,2 B,,2 F,,2 | G,,2 D,,2 G,,2 A,,2 | %24
 D,2 A,,2 B,,2 F,,2 | G,,2 D,,2 G,,2 A,,2 | D,2 A,,2 B,,2 F,,2 | G,,2 D,,2 G,,2 A,,2 | %28
 D,2 A,,2 B,,2 F,,2 | G,,2 D,,2 G,,2 A,,2 | D,2 A,,2 B,,2 F,,2 | G,,2 D,,2 G,,2 A,,2 | %32
 D,2 A,,2 B,,2 F,,2 | G,,2 D,,2 G,,2 A,,2 | D,2 A,,2 B,,2 F,,2 | G,,2 D,,2 G,,2 A,,2 | %36
 D,2 A,,2 B,,2 F,,2 | G,,2 D,,2 G,,2 A,,2 | D,2 A,,2 B,,2 F,,2 | G,,2 D,,2 G,,2 A,,2 | %40
 D,2 A,,2 B,,2 F,,2 | G,,2 D,,2 G,,2 A,,2 | D,2 A,,2 B,,2 F,,2 | G,,2 D,,2 G,,2 A,,2 | %44
 D,2 A,,2 B,,2 F,,2 | G,,2 D,,2 G,,2 A,,2 | D,2 A,,2 B,,2 F,,2 | G,,2 D,,2 G,,2 A,,2 | %48
 D,2 A,,2 B,,2 F,,2 | G,,2 D,,2 G,,2 A,,2 | D,2 A,,2 B,,2 F,,2 | G,,2 D,,2 G,,2 A,,2 | %52
 D,2 A,,2 B,,2 F,,2 | G,,2 D,,2 G,,2 A,,2 | D,2 A,,2 B,,2 F,,2 | G,,2 D,,2 G,,2 A,,2 | D,8 |] %57

